dist/svg/icon-topic.svg

<svg xmlns="http://www.w3.org/2000/svg" viewBox="0 0 400 400"><path d="M387 274.86V65.7a26 26 0 00-26-26H38.84a26 26 0 00-26 26v209.16a26 26 0 0026 26h29.49l38 68.05 52-68.2 202.61.15a26 26 0 0026.06-26zM24.75 271.6V69.19a16.48 16.48 0 0116.48-16.48h315.46a16.48 16.48 0 0116.48 16.48V271.6a16.48 16.48 0 01-16.48 16.48H151.27L107 347.43l-30.5-59.35H41.23a16.48 16.48 0 01-16.48-16.48zm287.74-101.83c0-3-2.2-5.5-4.91-5.5H92.25c-2.72 0-4.92 2.47-4.92 5.5s2.2 5.51 4.92 5.51h215.33c2.71 0 4.91-2.47 4.91-5.51zm-5.92-31H91.25a5.23 5.23 0 01-4.92-5.5c0-3 2.2-5.51 4.92-5.51h215.32c2.72 0 4.92 2.47 4.92 5.51a5.23 5.23 0 01-4.92 5.47zm-39.42 67.57c0-3-2.2-5.5-4.91-5.5h-170a5.53 5.53 0 000 11h170c2.76-.03 4.91-2.49 4.91-5.53z"/></svg>

<svg xmlns="http://www.w3.org/2000/svg" viewBox="0 0 400 400"><path d="M387,274.86V65.7a26,26,0,0,0-26-26H38.84a26,26,0,0,0-26,26V274.86a26,26,0,0,0,26,26H68.33l38,68.05,52-68.2,202.61.15A26,26,0,0,0,387,274.86ZM24.75,271.6V69.19A16.48,16.48,0,0,1,41.23,52.71H356.69a16.48,16.48,0,0,1,16.48,16.48V271.6a16.48,16.48,0,0,1-16.48,16.48H151.27L107,347.43l-30.5-59.35H41.23A16.48,16.48,0,0,1,24.75,271.6ZM312.49,169.77c0-3-2.2-5.5-4.91-5.5H92.25c-2.72,0-4.92,2.47-4.92,5.5s2.2,5.51,4.92,5.51H307.58C310.29,175.28,312.49,172.81,312.49,169.77Zm-5.92-31H91.25a5.23,5.23,0,0,1-4.92-5.5c0-3,2.2-5.51,4.92-5.51H306.57c2.72,0,4.92,2.47,4.92,5.51A5.23,5.23,0,0,1,306.57,138.74Zm-39.42,67.57c0-3-2.2-5.5-4.91-5.5h-170a5.53,5.53,0,0,0,0,11h170C265,211.81,267.15,209.35,267.15,206.31Z"/></svg>
